X:52
T:The Wild Irishman
N:Reel  Allan's # 52 (pg 13)
N:Trad/Anon
B:Allan's Irish Fiddler (pub. Mozart Allen,  Glascow) date unknown
Z:FROM ALLAN'S TO NOTEWORTHY, FROM NOTEWORTHY TO ABC, MIDI AND .TXT BY VINCE
BRENNAN Dec. 2002 (HTTP://WWW.SOSYOURMOM.COM)
I:abc2nwc
M:2/2
L:1/8
K:D
f|:edcB A2(cA)|eAcA (e2e)f|edcB A2(de)|fage dcdf|
edcB A2(cA)|eAcA (e2e)f|edcB A2(de)|fage dAFG||
d2(fd) Adfd|A2 ((3cBA) eAcA|d2(fd) Adfg| ((3agf) (ge) dAFA|
d2(fd) Adfd|A2 ((3cBA) eAcA|d2(fd) Adfg|[1 ((3agf) (ge) dcdf:|[2agfe d2z|]
